X: 225
T:100 Pipers
R:slide
M:6/8
L:1/8
K:G
A|B2 D DED|E2 G G2 e|d2 B BAG|B2 A AGA|
B2 D DED|E2 G G2 e|d2 B ABA|G3 G2:||
A|B2d dBd|e2f gfe|d2 B BAG|B2 A AGA|
B2d dBd|e2f gfe|d2 B ABA|G3 G2:||

